svgs/feedly.svg

<svg width="192" height="192" viewBox="0 0 192 192" fill="none" xmlns="http://www.w3.org/2000/svg">
<path fill-rule="evenodd" clip-rule="evenodd" d="M46.2341 107.107C45.0404 105.974 44.3243 104.54 44.0877 103.041C43.7491 100.897 44.3913 98.6216 46.0188 96.9073L109.191 30.2667C110.54 28.8273 112.342 28.0907 114.144 28H114.665C116.366 28.0567 117.975 28.7707 119.324 30.04L127.982 38.2001C130.872 40.9541 131.156 45.4875 128.402 48.4002L68.391 111.641L51.7322 112.319L51.7309 112.319L51.7295 112.32L51.6969 112.289L51.6955 112.287L46.2341 107.107ZM51.6969 112.321L51.7295 112.32L51.7309 112.321H51.6969ZM42.9108 120.494L37.9727 115.811C30.1684 108.403 30.0812 96.2727 37.3099 88.6517C37.3109 88.6507 37.3118 88.6498 37.3127 88.6488C37.3139 88.6476 37.3151 88.6463 37.3163 88.645L100.465 22.03C104.117 18.1495 108.923 16.2475 113.541 16.0152C113.742 16.0051 113.943 16 114.144 16H114.665C114.799 16 114.932 16.0022 115.065 16.0067C120.012 16.1716 124.327 18.2701 127.548 21.3016L136.212 29.4671L136.261 29.5129C143.578 36.486 144.748 48.5788 137.121 56.6447L126.183 68.1718C128.228 69.0746 130.08 70.3214 131.677 71.8118L140.514 79.9368C140.56 79.9797 140.606 80.023 140.652 80.0667C148.428 87.4472 148.597 99.6172 141.276 107.267L141.266 107.278L122.532 126.804C124.504 127.733 126.412 129.07 128.116 130.914C128.138 130.938 128.16 130.962 128.182 130.986L136.392 140.021C136.398 140.027 136.404 140.034 136.409 140.04C143.478 147.783 143.002 159.487 136.051 166.788L131.041 172.168C128.732 174.648 125.482 176.035 122.094 175.989L105.615 175.762C102.256 175.716 99.071 174.264 96.8327 171.76L92.0211 166.376C87.7869 161.735 86.1865 155.514 87.117 149.74L79.2682 149.953C76.1759 150.037 73.1706 148.923 70.8795 146.845L65.3828 141.858C65.3144 141.796 65.2467 141.733 65.1797 141.669C60.1953 136.933 58.3561 130.216 59.5951 124.009L52.4081 124.302C52.1835 124.314 51.9577 124.321 51.7309 124.321H51.6969C48.2314 124.321 45.1036 122.85 42.9108 120.494ZM73.2418 122.77C72.6524 123.382 72.1991 124.074 71.8591 124.81C70.6351 127.519 71.1678 130.806 73.4458 132.97L78.9425 137.957L95.6367 137.504L132.606 98.9701C135.383 96.0688 135.292 91.5241 132.391 88.7701L123.517 80.61C122.208 79.3792 120.645 78.6786 119.002 78.5846C118.984 78.5836 118.967 78.5827 118.95 78.5818C118.946 78.5816 118.942 78.5815 118.938 78.5813L118.95 78.5586H118.451C117.524 78.5984 116.599 78.8039 115.733 79.1836C114.874 79.5603 114.073 80.1085 113.385 80.8366L73.2418 122.77ZM100.918 147.681C100.632 147.976 100.376 148.291 100.151 148.623C99.7336 149.236 99.42 149.906 99.2066 150.605C98.402 153.223 99.0027 156.249 100.918 158.323L105.78 163.763L122.259 163.99L127.325 158.55C130.113 155.66 130.238 151.07 127.54 148.123L119.301 139.056C118.065 137.719 116.535 137.141 114.926 137.039H114.915C114.756 137.039 114.597 137.028 114.439 137.016V136.801C113.906 136.801 113.351 136.88 112.818 137.016C112.78 137.026 112.742 137.037 112.705 137.047C111.487 137.388 110.318 138.089 109.373 139.068L100.918 147.681Z" fill="black"/>
</svg>

<svg width="192" height="192" fill="none" xmlns="http://www.w3.org/2000/svg"><path fill-rule="evenodd" clip-rule="evenodd" d="M46.234 107.107a7.115 7.115 0 0 1-2.146-4.066 7.25 7.25 0 0 1 1.93-6.134l63.173-66.64c1.349-1.44 3.151-2.176 4.953-2.267h.521c1.701.057 3.31.77 4.659 2.04l8.658 8.16c2.89 2.754 3.174 7.287.42 10.2l-60.011 63.241-16.659.678h-.001l-.002.001-.032-.031-.002-.002-5.46-5.18Zm5.463 5.214.032-.001.002.001h-.034Zm-8.786 8.173-4.938-4.683c-7.805-7.408-7.892-19.538-.663-27.16l.003-.002a.133.133 0 0 0 .003-.004l63.149-66.615c3.652-3.88 8.458-5.783 13.076-6.015.201-.01.402-.015.603-.015h.521c.134 0 .267.002.4.007 4.947.165 9.262 2.263 12.483 5.295l8.664 8.165.049.046c7.317 6.973 8.487 19.066.86 27.132l-10.938 11.527a19.774 19.774 0 0 1 5.494 3.64l8.837 8.125.138.13c7.776 7.38 7.945 19.55.624 27.2l-.01.011-18.734 19.526a18.035 18.035 0 0 1 5.584 4.11l.066.072 8.21 9.035a.29.29 0 0 1 .017.019c7.069 7.743 6.593 19.447-.358 26.748l-5.01 5.38a12.001 12.001 0 0 1-8.947 3.821l-16.479-.227a12 12 0 0 1-8.782-4.002l-4.812-5.384c-4.234-4.641-5.835-10.862-4.904-16.636l-7.849.213a12.002 12.002 0 0 1-8.389-3.108l-5.496-4.987a10.612 10.612 0 0 1-.203-.189c-4.985-4.736-6.824-11.453-5.585-17.66l-7.187.293c-.224.012-.45.019-.677.019h-.034a11.97 11.97 0 0 1-8.786-3.827Zm30.33 2.276a7.385 7.385 0 0 0-1.382 2.04c-1.224 2.709-.691 5.996 1.587 8.16l5.496 4.987 16.695-.453 36.969-38.534c2.777-2.901 2.686-7.446-.215-10.2l-8.874-8.16c-1.309-1.23-2.872-1.931-4.515-2.025a19.61 19.61 0 0 0-.052-.003h-.012l.012-.023h-.499a7.581 7.581 0 0 0-2.718.625 7.195 7.195 0 0 0-2.348 1.653L73.242 122.77Zm27.677 24.911c-.286.295-.542.61-.767.942a7.307 7.307 0 0 0-.944 1.982c-.805 2.618-.204 5.644 1.711 7.718l4.862 5.44 16.479.227 5.066-5.44c2.788-2.89 2.913-7.48.215-10.427l-8.239-9.067c-1.236-1.337-2.766-1.915-4.375-2.017h-.011c-.159 0-.318-.011-.476-.023v-.215c-.533 0-1.088.079-1.621.215l-.113.031c-1.218.341-2.387 1.042-3.332 2.021l-8.455 8.613Z" fill="#000"/></svg>
